X:1
T:Song on the Victory of Agincourt
M:6/8
L:1/8
K:Bb
 d| d2 c d2 c| c B2 A2 d|d-c AG-AG/2-D/2| F =E2 D2 A| c2 cd-c B| A G2 F2 F|\
 A2 A G2 F| F =E2 D2 A/2- B/2-|c/2-d/2 cG B- A/2 G/2- A| G3- G2||
